X:1
T:Ruggles, 11.8.11.9
T:Ruggles, 11.8.11.9
T:Philip Paul Bliss, 1876
T:Public Domain Courtesy of the Cyber Hymnal™
C:Philip Paul Bliss, 1876
Z:Public Domain
Z:Courtesy of the Cyber Hymnal™
%%score ( 1 2 ) ( 3 4 )
L:1/8
M:4/4
K:Db
V:1 treble 
V:2 treble 
V:3 bass 
V:4 bass 
V:1
 [FA]2 | [FA]4 [EG]2 [DF]2 | [DF]4 [CE]2 [DF]2 | (G2 B2) [CA]2 [EG]2 | [DF]6 [FA]2 | %5
 [Fd]4 [Ec]2 [DB]2 | [FB]4 [EA]2 [E=G]2 | [EA]6 [GA]2 | [Fd]4 [Fd]2 [Ac]2 | [GB]4 B2 [AB]2 | %10
 [Ge]4 [Ge]2 [=Gd]2 | [Ac]4 [AB]2 A2 | [Ad]4 [Dd]2 [Ed]2 | [Fd]4 [Ec]3 [Fd] | [Fd]6 |] %15
V:2
 x2 | x8 | x8 | C4 x4 | x8 | x8 | x8 | x8 | x8 | x4 B2 x2 | x8 | x8 | x8 | x8 | x6 |] %15
V:3
 [D,A,]2 | [D,A,]4 [D,A,]2 A,2 | A,4 [G,A,]2 [F,A,]2 | [E,A,]4 [A,,A,]2 [A,,A,]2 | %4
 [D,A,]6 [D,A,]2 | [B,,B,]4 [C,=A,]2 [D,B,]2 | [D,D]4 [E,C]2 [E,B,]2 | [A,,C]6 [A,C]2 | %8
 [D,D]4 [D,D]2 [F,D]2 | [G,D]4 [G,D]2 [F,=D]2 | [E,E]4 [E,E]2 [E,E]2 | [A,E]4 [A,D]2 C2 | %12
 [F,D]4 [F,A,]2 [G,B,]2 | A,4 [A,,A,]3 [A,,A,] | [D,A,]6 |] %15
V:4
 x2 | x6 (D,F,) | A,4 x4 | x8 | x8 | x8 | x8 | x8 | x8 | x8 | x8 | x6 (A,G,) | x8 | A,4 x4 | x6 |] %15

